X: 42864
T: Wild One, The
R: jig
M: 6/8
K: Dminor
|:DEF DGD|AGc AGE|DEF DAD|FDF E3|
DEF DAD|AAc AGA|dcA cAG|AGE D2D:|
|:d2c A2c|d2c AcA|d2c A2G|FGE FED|
d2c A2c|d2c AcA|dcA cAG|AGE D2D:|

